packages/foundations/assets/icons/functional/images/file/upload.svg

<svg xmlns="http://www.w3.org/2000/svg" width="32" height="32" fill="none"><path fill="#1A1C1F" fill-rule="evenodd" d="M15.464 2.181c-.381.247-6.271 6.183-6.368 6.417-.193.465-.03 1.01.372 1.246.296.173.678.184.998.029.158-.076.878-.771 2.361-2.281l2.133-2.17.027 7.951.026 7.951.16.227a.98.98 0 0 0 .827.435.98.98 0 0 0 .827-.435l.16-.227.026-7.951.027-7.951 2.133 2.17c1.488 1.515 2.201 2.204 2.36 2.281.321.155.703.144.999-.029.402-.236.565-.78.373-1.246-.102-.246-6.139-6.313-6.436-6.468a1.03 1.03 0 0 0-1.005.051M4.665 20.057c-.202.058-.498.342-.593.568-.11.263-.103 6.569.008 7.041.249 1.058 1.06 1.907 2.133 2.236.306.094.75.098 9.814.098h9.493l.386-.141c.212-.078.5-.208.64-.289.395-.229.921-.797 1.122-1.211.335-.694.336-.703.32-4.376l-.015-3.324-.127-.186c-.354-.516-1.036-.615-1.508-.218-.346.291-.335.183-.365 3.829l-.026 3.311-.154.202a1.2 1.2 0 0 1-.373.301c-.212.096-.548.1-9.42.1s-9.208-.004-9.42-.1a1.2 1.2 0 0 1-.373-.301l-.154-.202-.026-3.311c-.021-2.573-.043-3.346-.097-3.471-.208-.474-.742-.709-1.265-.556"/></svg>

<svg width="32" height="32" viewBox="0 0 32 32" fill="none" xmlns="http://www.w3.org/2000/svg"><path d="M15.464 2.181 C 15.083 2.428,9.193 8.364,9.096 8.598 C 8.903 9.063,9.066 9.608,9.468 9.844 C 9.764 10.017,10.146 10.028,10.466 9.873 C 10.624 9.797,11.344 9.102,12.827 7.592 L 14.960 5.422 14.987 13.373 L 15.013 21.324 15.173 21.551 C 15.376 21.837,15.658 21.986,16.000 21.986 C 16.342 21.986,16.624 21.837,16.827 21.551 L 16.987 21.324 17.013 13.373 L 17.040 5.422 19.173 7.592 C 20.661 9.107,21.374 9.796,21.533 9.873 C 21.854 10.028,22.236 10.017,22.532 9.844 C 22.934 9.608,23.097 9.064,22.905 8.598 C 22.803 8.352,16.766 2.285,16.469 2.130 C 16.162 1.970,15.757 1.990,15.464 2.181 M4.665 20.057 C 4.463 20.115,4.167 20.399,4.072 20.625 C 3.962 20.888,3.969 27.194,4.080 27.666 C 4.329 28.724,5.140 29.573,6.213 29.902 C 6.519 29.996,6.963 30.000,16.027 30.000 L 25.520 30.000 25.906 29.859 C 26.118 29.781,26.406 29.651,26.546 29.570 C 26.941 29.341,27.467 28.773,27.668 28.359 C 28.003 27.665,28.004 27.656,27.988 23.983 L 27.973 20.659 27.846 20.473 C 27.492 19.957,26.810 19.858,26.338 20.255 C 25.992 20.546,26.003 20.438,25.973 24.084 L 25.947 27.395 25.793 27.597 C 25.708 27.708,25.540 27.843,25.420 27.898 C 25.208 27.994,24.872 27.998,16.000 27.998 C 7.128 27.998,6.792 27.994,6.580 27.898 C 6.460 27.843,6.292 27.708,6.207 27.597 L 6.053 27.395 6.027 24.084 C 6.006 21.511,5.984 20.738,5.930 20.613 C 5.722 20.139,5.188 19.904,4.665 20.057 " fill="#1A1C1F" stroke="none" fill-rule="evenodd"></path></svg>
